images/icon-content.svg

<svg fill="none" height="64" viewBox="0 0 64 64" width="64" xmlns="http://www.w3.org/2000/svg" xmlns:xlink="http://www.w3.org/1999/xlink"><clipPath id="a"><path d="m0 0h64v64h-64z"/></clipPath><g clip-path="url(#a)" fill="#f46662"><path d="m32 13.6144c.4711 0 .853-.3746.853-.8366 0-.4621-.3819-.8367-.853-.8367s-.853.3746-.853.8367c0 .462.3819.8366.853.8366z"/><path d="m60.0101 46.8182h-1.0199c.4852-.8036.7649-1.7441.7649-2.7489v-29.4679c0-2.9473-2.4005-5.34501-5.351-5.34501h-44.80808c-2.95051 0-5.35101 2.39771-5.35101 5.34501v29.4681c0 1.0047.27987 1.9452.76487 2.7488h-1.01987c-2.20001 0-3.99001 1.7777-3.99001 3.9627s1.78988 3.9627 3.99001 3.9627h56.02009c2.2 0 3.99-1.7776 3.99-3.9627-.0001-2.1853-1.7898-3.9628-3.99-3.9628zm-53.80596-32.2168c0-1.867 1.5215-3.3859 3.39188-3.3859h44.80818c1.8703 0 3.3919 1.5189 3.3919 3.3859v29.4681c0 1.1311-.559 2.1335-1.415 2.7488h-17.8959-12.7-18.16618c-.85601-.6153-1.41488-1.6177-1.41488-2.7488zm32.88896 34.7864c0 .3368-.2728.6107-.6079.6107h-12.7c-.3351 0-.6079-.2739-.6079-.6107 0-.3366.2728-.6105.6079-.6105h12.7c.3353.0002.6079.2739.6079.6105zm20.917 3.3967h-56.02009c-1.11975 0-2.03076-.8988-2.03076-2.0037 0-1.1048.91101-2.0036 2.03076-2.0036h19.30439c-.0481.196-.0762.3998-.0762.6105 0 1.417 1.1516 2.5698 2.567 2.5698h12.7c1.4155 0 2.567-1.1528 2.567-2.5698 0-.2106-.0282-.4144-.0762-.6105h19.034c1.1197 0 2.0308.8988 2.0308 2.0036-.0002 1.1049-.9109 2.0037-2.0307 2.0037z"/><path d="m53.8243 14.541h-14.4444-29.2039c-1.09458 0-1.98508.8997-1.98508 2.0054v3.9121 22.8827c0 1.0888.8905 1.9746 1.98508 1.9746h29.2039 14.4444c.1368 0 .2705-.0138.3996-.0402.9039-.1844 1.5856-.9816 1.5856-1.9344v-22.8827-3.9121c0-1.1057-.8905-2.0054-1.9852-2.0054zm-14.4444 28.8156h-29.2039c-.0195 0-.0258-.014-.026-.0154v-22.8827h29.2299zm14.4705-.0143c-.0001.0002-.0065.0143-.0261.0143h-12.4853v-22.8981h12.5114zm0-24.8429h-43.7004v-1.9529c0-.0336.0222-.0462.026-.0462h43.6483c.0038 0 .0261.0127.0261.0462z"/><path d="m34.3449 22.2358h-18.6166c-1.2734 0-2.3094 1.036-2.3094 2.3095v5.3189c.0002 1.2734 1.036 2.3095 2.3094 2.3095h18.6166c1.2733 0 2.3093-1.036 2.3093-2.3095v-5.3189c0-1.2734-1.036-2.3095-2.3093-2.3095zm.3502 7.6284c0 .1931-.1571.3502-.3501.3502h-18.6167c-.193 0-.3501-.1571-.3501-.3502v-5.3189h.0001c0-.1931.1572-.3503.3502-.3503h18.6165c.193 0 .3501.1572.3501.3503z"/><path d="m50.4164 24.104h-5.9597c-.541 0-.9796.4387-.9796.9797 0 .5411.4386.9796.9796.9796h5.9597c.541 0 .9797-.4385.9797-.9796-.0002-.541-.4387-.9797-.9797-.9797z"/><path d="m50.4164 28.4143h-5.9597c-.541 0-.9796.4386-.9796.9796 0 .5412.4386.9797.9796.9797h5.9597c.541 0 .9797-.4385.9797-.9797-.0002-.541-.4387-.9796-.9797-.9796z"/><path d="m50.4164 32.7245h-5.9597c-.541 0-.9796.4387-.9796.9797 0 .5411.4386.9796.9796.9796h5.9597c.541 0 .9797-.4385.9797-.9796-.0002-.5412-.4387-.9797-.9797-.9797z"/><path d="m50.4164 37.0347h-5.9597c-.541 0-.9796.4386-.9796.9796s.4386.9797.9796.9797h5.9597c.541 0 .9797-.4387.9797-.9797-.0002-.541-.4387-.9796-.9797-.9796z"/><path d="m35.6746 34.0307h-21.276c-.541 0-.9797.4386-.9797.9796s.4387.9797.9797.9797h21.2761c.541 0 .9797-.4387.9797-.9797-.0002-.5411-.4388-.9796-.9798-.9796z"/><path d="m35.6746 38.3408h-21.276c-.541 0-.9797.4386-.9797.9796s.4387.9797.9797.9797h21.2761c.541 0 .9797-.4387.9797-.9797-.0002-.541-.4388-.9796-.9798-.9796z"/></g></svg>

<svg width="64" height="64" viewBox="0 0 64 64" fill="none" xmlns="http://www.w3.org/2000/svg">
<g clip-path="url(#clip0)">
<path d="M32 13.6144C32.4711 13.6144 32.853 13.2398 32.853 12.7778C32.853 12.3157 32.4711 11.9411 32 11.9411C31.5289 11.9411 31.147 12.3157 31.147 12.7778C31.147 13.2398 31.5289 13.6144 32 13.6144Z" fill="#F46662"/>
<path d="M60.0101 46.8182H58.9902C59.4754 46.0146 59.7551 45.0741 59.7551 44.0693V14.6014C59.7551 11.6541 57.3546 9.25639 54.4041 9.25639H9.59602C6.64551 9.25639 4.24501 11.6541 4.24501 14.6014V44.0695C4.24501 45.0742 4.52488 46.0147 5.00988 46.8183H3.99001C1.79 46.8183 0 48.596 0 50.781C0 52.966 1.78988 54.7437 3.99001 54.7437H60.0101C62.2101 54.7437 64.0001 52.9661 64.0001 50.781C64 48.5957 62.2103 46.8182 60.0101 46.8182ZM6.20414 14.6014C6.20414 12.7344 7.72564 11.2155 9.59602 11.2155H54.4042C56.2745 11.2155 57.7961 12.7344 57.7961 14.6014V44.0695C57.7961 45.2006 57.2371 46.203 56.3811 46.8183H38.4852H25.7852H7.61902C6.76301 46.203 6.20414 45.2006 6.20414 44.0695V14.6014ZM39.0931 49.3878C39.0931 49.7246 38.8203 49.9985 38.4852 49.9985H25.7852C25.4501 49.9985 25.1773 49.7246 25.1773 49.3878C25.1773 49.0512 25.4501 48.7773 25.7852 48.7773H38.4852C38.8205 48.7775 39.0931 49.0512 39.0931 49.3878ZM60.0101 52.7845H3.99001C2.87026 52.7845 1.95925 51.8857 1.95925 50.7808C1.95925 49.676 2.87026 48.7772 3.99001 48.7772H23.2944C23.2463 48.9732 23.2182 49.177 23.2182 49.3877C23.2182 50.8047 24.3698 51.9575 25.7852 51.9575H38.4852C39.9007 51.9575 41.0522 50.8047 41.0522 49.3877C41.0522 49.1771 41.024 48.9733 40.976 48.7772H60.01C61.1297 48.7772 62.0408 49.676 62.0408 50.7808C62.0406 51.8857 61.1299 52.7845 60.0101 52.7845Z" fill="#F46662"/>
<path d="M53.8243 14.541H39.3799H10.176C9.08142 14.541 8.19092 15.4407 8.19092 16.5464V20.4585V43.3412C8.19092 44.43 9.08142 45.3158 10.176 45.3158H39.3799H53.8243C53.9611 45.3158 54.0948 45.302 54.2239 45.2756C55.1278 45.0912 55.8095 44.294 55.8095 43.3412V20.4585V16.5464C55.8095 15.4407 54.919 14.541 53.8243 14.541ZM39.3799 43.3566H10.176C10.1565 43.3566 10.1502 43.3426 10.15 43.3412V20.4585H39.3799V43.3566ZM53.8504 43.3423C53.8503 43.3425 53.8439 43.3566 53.8243 43.3566H41.339V20.4585H53.8504V43.3423ZM53.8504 18.4994H10.15V16.5465C10.15 16.5129 10.1722 16.5003 10.176 16.5003H53.8243C53.8281 16.5003 53.8504 16.513 53.8504 16.5465V18.4994Z" fill="#F46662"/>
<path d="M34.3449 22.2358H15.7283C14.4549 22.2358 13.4189 23.2718 13.4189 24.5453V29.8642C13.4191 31.1376 14.4549 32.1737 15.7283 32.1737H34.3449C35.6182 32.1737 36.6542 31.1377 36.6542 29.8642V24.5453C36.6542 23.2719 35.6182 22.2358 34.3449 22.2358ZM34.6951 29.8642C34.6951 30.0573 34.538 30.2144 34.345 30.2144H15.7283C15.5353 30.2144 15.3782 30.0573 15.3782 29.8642V24.5453H15.3783C15.3783 24.3522 15.5355 24.195 15.7285 24.195H34.345C34.538 24.195 34.6951 24.3522 34.6951 24.5453V29.8642Z" fill="#F46662"/>
<path d="M50.4164 24.104H44.4567C43.9157 24.104 43.4771 24.5427 43.4771 25.0837C43.4771 25.6248 43.9157 26.0633 44.4567 26.0633H50.4164C50.9574 26.0633 51.3961 25.6248 51.3961 25.0837C51.3959 24.5427 50.9574 24.104 50.4164 24.104Z" fill="#F46662"/>
<path d="M50.4164 28.4143H44.4567C43.9157 28.4143 43.4771 28.8529 43.4771 29.3939C43.4771 29.9351 43.9157 30.3736 44.4567 30.3736H50.4164C50.9574 30.3736 51.3961 29.9351 51.3961 29.3939C51.3959 28.8529 50.9574 28.4143 50.4164 28.4143Z" fill="#F46662"/>
<path d="M50.4164 32.7245H44.4567C43.9157 32.7245 43.4771 33.1632 43.4771 33.7042C43.4771 34.2453 43.9157 34.6838 44.4567 34.6838H50.4164C50.9574 34.6838 51.3961 34.2453 51.3961 33.7042C51.3959 33.163 50.9574 32.7245 50.4164 32.7245Z" fill="#F46662"/>
<path d="M50.4164 37.0347H44.4567C43.9157 37.0347 43.4771 37.4733 43.4771 38.0143C43.4771 38.5553 43.9157 38.994 44.4567 38.994H50.4164C50.9574 38.994 51.3961 38.5553 51.3961 38.0143C51.3959 37.4733 50.9574 37.0347 50.4164 37.0347Z" fill="#F46662"/>
<path d="M35.6746 34.0307H14.3986C13.8576 34.0307 13.4189 34.4693 13.4189 35.0103C13.4189 35.5513 13.8576 35.99 14.3986 35.99H35.6747C36.2157 35.99 36.6544 35.5513 36.6544 35.0103C36.6542 34.4692 36.2156 34.0307 35.6746 34.0307Z" fill="#F46662"/>
<path d="M35.6746 38.3408H14.3986C13.8576 38.3408 13.4189 38.7794 13.4189 39.3204C13.4189 39.8614 13.8576 40.3001 14.3986 40.3001H35.6747C36.2157 40.3001 36.6544 39.8614 36.6544 39.3204C36.6542 38.7794 36.2156 38.3408 35.6746 38.3408Z" fill="#F46662"/>
</g>
<defs>
<clipPath id="clip0">
<rect width="64" height="64" fill="white"/>
</clipPath>
</defs>
</svg>
